X:1150
T:Polska ur Sven Donats notbok
T:(MA5-15)
S:Efter Sven Donat
R:Polska
O:Småland
N:[[http://www.smus.se/earkiv/fmk/browsevol.php?lang=sw&katalogid=Ma+5&bildnr=00017|MA5, låt 15, sida 17]]
B:Sven Donats notbok
Z:Jonas Brunskog
M:3/4
L:1/8
K:Dm
|:AF A^c cd|AF (AP=B/^c/) d2| AF A^c cd|AF (AP=B/^c/) d2:|
|:f2 (fPg/f/) Te^c|d/^c/d/e/ f/e/f/g/ ae|f2 fg/f/ ed|^c/d/e/f/ Te2 d2:|
(:musicend:)

(:music:)
